X:1
T:Welcome Home
T:Welcome Home
T:Noble W. Ridgeway
T:Nell Ray, 1922
T:Public Domain Courtesy of the Cyber Hymnal™
T:Public Domain Courtesy of the Cyber Hymnal™
C:Noble W. Ridgeway
Z:Public Domain
Z:Courtesy of the Cyber Hymnal™
%%score ( 1 2 ) ( 3 4 )
L:1/8
Q:1/4=95
M:4/4
K:Eb
V:1 treble 
V:2 treble 
V:3 bass 
V:4 bass 
V:1
 [B,E][B,F] | [EG][EG][EG][EG] [EG]2 [EG][FA] | [GB][GB][GB][GB] [GB]2 [B,E][DF] | %3
w: 1.~Wel- come|home, O wan- dering child, Leave sin’s|moun- tain dark and wild; Hear the|
w: 2.~Wel- come|home— O words of cheer, Fall- ing|on the sin- ner’s ear; Ful- ly|
w: 3.~Wel- come|home, the Sav- ior stands With ex-|tend- ed, plead- ing hands; Will you|
 [EG][EG][EG][EA] [EB][EB][EG]E | [DF]6 [B,E][B,F] | [EG][EG][EG][EG] [EG]2 [GB][GB] | %6
w: Fa- ther’s voice now bidd- ing you re-|turn! World- ly|plea- sures are but vain, In their|
w: trust in Him, the on- ly re- fuge|true! Who- so-|ev- er will may come Un- to|
w: tar- ry, and His heart so ten- der|grieve? There is|dan- ger if you wait, Since the|
 [Ac][ce][Bd][Ac] [GB]2 [EG][EG] | [EB][EB][Ge][Ge] [Fc][FA][EG][DF] | [B,E]6 ||"^Refrain" BB | %10
w: midst, O why re- main? En- ter|now the nar- row way, its rap- ture|learn!||
w: par- don, love, and home, And be|hap- py thro’ His won- drous grace a-|new.|Do you|
w: hour is grow- ing late, Come to-|day, be- hind you sin and sor- row|leave.||
 B4- [GB][GB][GB][Ac] | [GB]([GB-] B4) BB | e4- [Ae][Ac][EB][EG] | F6 BB | B4- [GB][GB][GB][Ac] | %15
w: |||||
w: hear the in- vi- ta-|* tion: * “Wel- come|home, O wan- dering child!”|* For your|soul there’s free sal- va-|
w: |||||
 [GB]([GB-] B4) [EG][EG] | [EB][EB][Ge][Ge] [Fc][FA][EG][DF] | E3 x3 |] %18
w: |||
w: * tion, * Wel- come|home to- day, O wea- ry, wan- dering|child.|
w: |||
V:2
 x2 | x8 | x8 | x7 E | x8 | x8 | x8 | x8 | x6 || x2 | G2 F2 x4 | x2 (FFGG) x2 | G2 G2 x4 | %13
 (DDDD D2) x2 | G2 F2 x4 | x2 (FFGG) x2 | x8 | (ECB,=A, B,2) |] %18
V:3
 [E,G,][E,A,] | [E,B,][E,B,][E,B,][E,B,] [E,B,]2 [E,B,][E,B,] | %2
w: ~ ~|~ ~ ~ ~ ~ ~ ~|
 [E,E][E,E][E,E][E,E] [E,E]2 [G,B,][F,B,] | [E,B,][E,B,][E,B,][F,B,] [G,B,][G,B,][E,B,][C,=A,] | %4
w: ~ ~ ~ ~ ~ ~ ~|~ ~ ~ ~ ~ ~ ~ ~|
 [B,,B,]6 [E,G,][E,A,] | [E,B,][E,B,][E,B,][E,B,] [E,B,]2 [E,E][E,E] | %6
w: ~ ~ ~|~ ~ ~ ~ ~ ~ ~|
 [A,E][A,E][A,E][A,E] [E,E]2 [E,B,][E,B,] | [G,B,][G,B,][C,C][C,C] [F,A,][F,C][B,,B,][B,,A,] | %8
w: ~ ~ ~ ~ ~ ~ ~|~ ~ ~ ~ ~ ~ ~ ~|
 [E,G,]6 || z2 | [E,E]2 [B,,D]2 [E,E][E,E][E,E][E,E] | [E,E][E,E][B,,D][B,,D] [E,E][E,E] z2 | %12
w: ~||Do you hear ~ ~ ~|~ ~ in- vi- ta- tion;|
 [E,B,]2 [E,B,]2 [A,C][A,E][G,B,][E,B,] | [B,,B,][B,,B,][B,,B,][B,,B,] [B,,B,]2 z2 | %14
w: “Wel- come home ~ ~ ~|~ O wan- dering child”|
 [E,E]2 [B,,D]2 [E,E][E,E][E,E][E,E] | [E,E][E,E][B,,D][B,,D] [E,E][E,E][E,B,][E,B,] | %16
w: For your soul ~ ~ ~|~ ~ free sal- va- tion ~ ~|
 [G,B,][G,B,][C,C][C,C] [F,A,][F,C][B,,B,][B,,A,] | G,A,G,^F, G,2 |] %18
w: ~ ~ ~ ~ ~ ~ ~ ~|~ O wan- dering child!|
V:4
 x2 | x8 | x8 | x8 | x8 | x8 | x8 | x8 | x6 || x2 | x8 | x8 | x8 | x8 | x8 | x8 | x8 | E,6 |] %18

